X:1
T:On the Road to Boston
M:2/4
L:1/8
R:polka
K:Dmaj
|: f2 f e/f/ | gf ed | cd ef | dA FA |
f2 f e/f/ | gf ed | cd ef |1 d2 d2 :|2 d2 d ||
|: f | a2 a g/a/ | ba gf | g2 g f/g/ | ag fe |
f2 f e/f/ | gf ed | cd ef |1 d2 d :|2 d2 d2 ||
